X: 42
T:More Luck to Us
M:C|
L:1/8
S:The Moving Cloud
R:reel
K:D
D3  F A3  B|AFdB AFGF|Eeed e2 ef|gefd B3  c|d2  DF A3  B|AFdB AFDF|GABG
FGAF|1EFGA BAFE :|2EFGA BABc|
|:dcde dAFA|dcdB AFDF|EFGA BABd|gefd BABc|dcde dAFA|dcdB AFDF|G2 BG F2 A
F|1EFGA BABc :|2EFGA BAFE ||
